src/svg/Share_16.svg

<?xml version="1.0" encoding="UTF-8"?>
<svg width="16px" height="16px" viewBox="0 0 16 16" version="1.1" xmlns="http://www.w3.org/2000/svg" xmlns:xlink="http://www.w3.org/1999/xlink">
    <!-- Generator: Sketch 56.3 (81716) - https://sketch.com -->
    <title>Icons/Share/16</title>
    <desc>Created with Sketch.</desc>
    <g id="Icons/Share/16" stroke="none" stroke-width="1" fill="none" fill-rule="evenodd">
        <path d="M4,14 L12,14 L12,9 L13,9 L13,15 L12,15 L4,15 L3,15 L3,9 L4,9 L4,14 Z" id="Combined-Shape" fill="#000000" fill-rule="nonzero"></path>
        <path d="M8.50507627,2.90839453 L8.50507627,11 L7.49492373,11 L7.49492373,2.92643251 L3.7233047,6.69805153 L3.01262658,5.98737342 L8.01262658,0.987373415 L8.7233047,1.69805153 L12.9873734,5.96212025 L12.2730877,6.67640596 L8.50507627,2.90839453 Z" id="Combined-Shape" fill="#000000" fill-rule="nonzero"></path>
    </g>
</svg>

<svg viewBox="0 0 16 16"><g fill-rule="nonzero"><path d="M4 14h8V9h1v6H3V9h1v5z"/><path d="M8.505 2.908V11h-1.01V2.926L3.723 6.698l-.71-.71 5-5 .71.71 4.264 4.264-.714.714-3.768-3.768z"/></g></svg>
